chrome/icons/bolt.svg

<svg height="16" viewBox="124 0 761 1024" width="16" xmlns="http://www.w3.org/2000/svg" xmlns:xlink="http://www.w3.org/1999/xlink">
  <path d="M194,953.5C194,947.167 194.667,941.5 196,936.5L272.5,640L192,640C182.667,640 173.833,638.167 165.5,634.5C157.167,630.833 149.917,625.917 143.75,619.75C137.583,613.583 132.667,606.333 129,598C125.333,589.667 123.5,580.833 123.5,571.5C123.5,565.5 124.333,559.5 126,553.5L266.5,47C270.167,33 277.833,21.6667 289.5,13C301.167,4.33337 314.167,0 328.5,0L675,0C684,0 692.333,1.75 700,5.25C707.667,8.75 714.417,13.4167 720.25,19.25C726.083,25.0834 730.667,31.9167 734,39.75C737.333,47.5834 739,55.8334 739,64.5C739,71.8334 737.833,78.8334 735.5,85.5L653,320L815.5,320C824.833,320 833.583,321.833 841.75,325.5C849.917,329.167 857.167,334.167 863.5,340.5C869.833,346.833 874.833,354.083 878.5,362.25C882.167,370.417 884,379.167 884,388.5C884,407.5 877.667,423.5 865,436.5L314,1002.5C307.333,1009.17 299.75,1014.33 291.25,1018C282.75,1021.67 273.667,1023.5 264,1023.5C254.333,1023.5 245.333,1021.67 237,1018C228.667,1014.33 221.25,1009.25 214.75,1002.75C208.25,996.25 203.167,988.833 199.5,980.5C195.833,972.167 194,963.167 194,953.5ZM820.5,388.5C820.5,387.167 819.917,386.083 818.75,385.25C817.583,384.417 816.5,384 815.5,384L608,384C599.333,384 591.833,380.917 585.5,374.75C579.167,368.583 576,361.167 576,352.5C576,350.833 576.167,349 576.5,347C576.833,345 577.333,343.167 578,341.5L675,64L328.5,64C327.167,68.6667 324.167,79.3334 319.5,96C314.833,112.667 309.083,133.25 302.25,157.75C295.417,182.25 287.833,209.417 279.5,239.25C271.167,269.083 262.75,299.167 254.25,329.5C245.75,359.833 237.5,389.417 229.5,418.25C221.5,447.083 214.417,472.75 208.25,495.25C202.083,517.75 197.083,535.917 193.25,549.75C189.417,563.583 187.5,570.833 187.5,571.5C187.5,574.5 189,576 192,576L313.5,576C322.5,576 330.083,579.083 336.25,585.25C342.417,591.417 345.5,599 345.5,608C345.5,610 345.167,612.667 344.5,616L258,952.5L258,954C258,957.667 260.167,959.5 264.5,959.5C265.833,959.5 267,959 268,958L819,392C820,391 820.5,389.833 820.5,388.5Z" fill="context-fill" fill-opacity="context-fill-opacity">
  </path>
</svg>

<svg xmlns="http://www.w3.org/2000/svg" width="16" height="16" viewBox="124 0 761 1024"><path fill="context-fill" fill-opacity="context-fill-opacity" d="M194 953.5q0-9.5 2-17L272.5 640H192q-14 0-26.5-5.5t-21.75-14.75T129 598t-5.5-26.5q0-9 2.5-18L266.5 47q5.5-21 23-34t39-13H675q13.5 0 25 5.25t20.25 14T734 39.75t5 24.75q0 11-3.5 21L653 320h162.5q14 0 26.25 5.5a72.5 72.5 0 0 1 21.75 15 72.5 72.5 0 0 1 15 21.75q5.5 12.25 5.5 26.25 0 28.5-19 48l-551 566c-6.667 6.67-14.25 11.83-22.75 15.5s-17.583 5.5-27.25 5.5-18.667-1.83-27-5.5-15.75-8.75-22.25-15.25Q205 993 199.5 980.5t-5.5-27m626.5-565q0-2-1.75-3.25T815.5 384H608q-13 0-22.5-9.25T576 352.5q0-2.5.5-5.5t1.5-5.5L675 64H328.5q-2 7-9 32a63602 63602 0 0 0-17.25 61.75Q292 194.5 279.5 239.25t-25.25 90.25-24.75 88.75-21.25 77-15 54.5-5.75 21.75q0 4.5 4.5 4.5h121.5q13.5 0 22.75 9.25T345.5 608q0 3-1 8L258 952.5v1.5q0 5.5 6.5 5.5 2 0 3.5-1.5l551-566q1.5-1.5 1.5-3.5"/></svg>
